X:22
T: WEM GOTT WILL RECHTE GUNST ERWEISEN
N: B0508
O: Europa, Mitteleuropa, Deutschland
R: Wander - Lied
M: 4/4
L: 1/16
K: D
D,4 | F,4A,4D3CD2B,2 | A,8F,4
A,4 | G,3F,G,2E,2F,4D,4 | E,8z4
E,2F,2 | G,6G,2F,3F,G,2A,2 | B,8A,4
A,4 | D3=CD2E2F4E4 | D8z4

